packages/sources/icons/src/vitamix/timer-fill.svg

<svg width="16" height="16" viewBox="0 0 16 16" xmlns="http://www.w3.org/2000/svg"><path fill-rule="evenodd" clip-rule="evenodd" d="M10.6664 1.33331H5.33308V2.66665H10.6664V1.33331ZM11.7451 4.64528L12.7137 3.67661L13.6564 4.61928L12.6877 5.58794C14.6751 8.07557 14.3733 11.6824 12 13.8051C9.62684 15.9278 6.00882 15.8271 3.75737 13.5756C1.50593 11.3242 1.40521 7.70616 3.52791 5.33295C5.65061 2.95974 9.25743 2.65789 11.7451 4.64528ZM7.33308 5.99998V9.99998H8.66642V5.99998H7.33308Z"/></svg>

<svg width="16" height="16" xmlns="http://www.w3.org/2000/svg"><path fill-rule="evenodd" clip-rule="evenodd" d="M10.666 1.333H5.333v1.334h5.333V1.333Zm1.08 3.312.968-.968.942.942-.968.969a6 6 0 1 1-.943-.943ZM7.332 6v4h1.333V6H7.333Z"/></svg>
